static/images/mobile/copyright/wikipedia-tagline-zh_yue.svg

<?xml version="1.0" encoding="UTF-8"?>
<svg width="120px" height="16px" viewBox="0 0 120 16" version="1.1" xmlns="http://www.w3.org/2000/svg" xmlns:xlink="http://www.w3.org/1999/xlink">
    <title>wikipedia-tagline-zh-yue</title>
    <g id="Page-1" stroke="none" stroke-width="1" fill="none" fill-rule="evenodd">
        <path d="M9.42349577,2.93325052 L4.33244825,2.93325052 C4.93932767,2.24207642 5.5293505,1.39918834 5.90022125,0.724877876 C6.28794977,0.741788484 6.45652738,0.64055971 6.50710067,0.472017324 L4.56845691,0 C4.43359482,0.876603602 4.16386946,2.05664691 3.87728869,2.93325052 L1.19690225,2.93325052 L0,2.36008662 L0,15.67773 C1.02832346,15.67773 1.09575568,15.2562801 1.09575568,15.2394282 L1.09575568,14.565106 L9.59207339,14.565106 L9.59207339,15.5428679 C10.4181037,15.5428679 10.7046868,15.1719972 10.7046868,15.1382816 L10.7046868,3.65812839 C11.0586986,3.59072083 11.3452818,3.45583525 11.4464283,3.32097316 L9.9798019,2.2083609 L9.42349577,2.93325052 M9.59207339,10.3506656 L1.09575568,10.3506656 L1.09575568,7.01282882 L9.59207339,7.01282882 L9.59207339,10.3506656 M9.59207339,6.60824254 L1.09575568,6.60824254 L1.09575568,3.33783679 L9.59207339,3.33783679 L9.59207339,6.60824254 M1.09575568,10.7552519 L9.59207339,10.7552519 L9.59207339,14.1605197 L1.09575568,14.1605197 L1.09575568,10.7552519 M28.3670762,4.18072487 L23.6468995,4.18072487 L23.6468995,0.724877876 C24.2200634,0.657470317 24.4223565,0.522584737 24.4392143,0.252860552 L22.5511438,0.0842829362 L22.5511438,4.18072487 L17.8646826,4.18072487 L16.6677815,3.62441287 L16.6677815,15.67773 C17.6623882,15.67773 17.7466782,15.2731437 17.7466782,15.2562801 L17.7466782,14.413392 L28.5693694,14.413392 L28.5693694,15.5260043 C29.3111109,15.5260043 29.6651239,15.1551335 29.6651239,15.121418 L29.6651239,4.98989743 C30.0865679,4.90557926 30.4237243,4.75388877 30.5585864,4.56844752 L28.9570979,3.38840421 L28.3670762,4.18072487 M22.5511438,8.95147727 L17.7466782,8.95147727 L17.7466782,4.58531115 L22.5511438,4.58531115 L22.5511438,8.95147727 M28.5693694,8.95147727 L23.6468995,8.95147727 L23.6468995,4.58531115 L28.5693694,4.58531115 L28.5693694,8.95147727 M22.5511438,9.35606355 L22.5511438,14.0088057 L17.7466782,14.0088057 L17.7466782,9.35606355 L22.5511438,9.35606355 M23.6468995,9.35606355 L28.5693694,9.35606355 L28.5693694,14.0088057 L23.6468995,14.0088057 L23.6468995,9.35606355 M33.6133209,3.61111925 C33.6023994,3.28186738 33.5803922,2.98554422 33.5474752,2.72212628 C33.5145465,2.44776342 33.4925979,2.29959597 33.4816295,2.27763567 C33.4816295,2.25567537 33.4925509,2.20635276 33.5145582,2.12947996 C33.5474869,2.11891083 33.5858998,2.1353517 33.629797,2.17880256 C33.6736941,2.21180173 33.7450357,2.27756521 33.8438113,2.37635134 C33.9535658,2.47511398 34.0578244,2.56842765 34.1566023,2.65622189 L35.7864067,2.65622189 C35.8961495,2.65623363 36.0059052,2.61230128 36.1156597,2.52451879 L36.5107643,2.09649253 C36.57661,2.00865132 36.653437,2.00324932 36.7412418,2.08005166 C37.1363405,2.37638657 37.4326684,2.60686405 37.6302254,2.77148412 C37.6960711,2.84828646 37.6960711,2.90319896 37.6302254,2.93611592 L37.1198832,3.33121347 C37.0540258,3.37513408 37.0210971,3.40801581 37.0211089,3.42997612 L37.0211089,7.85844139 C36.9991485,8.69254534 37.0211053,9.66933255 37.0869545,10.7887913 C37.097876,10.8546722 37.0814351,10.8985928 37.0375615,10.9204944 C37.0046328,10.9424547 36.7741541,11.0356979 36.346129,11.2003532 C36.2802716,11.2332349 36.2473546,11.1728734 36.2473546,11.0192687 L36.2473546,10.2784432 L34.3706096,10.2784432 L34.3870739,11.9741074 C34.3651254,12.0948303 34.3212165,12.166172 34.2553732,12.1881205 C33.8492919,12.3747009 33.6133279,12.4679793 33.5474775,12.4679793 C33.5035804,12.4679793 33.4816295,12.3581778 33.4816295,12.1387275 L33.6133338,8.74742261 L33.6133338,3.61107228 M34.3870786,3.16658167 L34.3870786,8.74742261 L34.3706143,9.76810694 L36.2473593,9.76810694 L36.2473593,3.16658167 L34.3870774,3.16658167 M41.1696977,10.90403 L41.136769,10.8381491 C40.9062833,10.3223169 40.6703192,9.92172336 40.4288745,9.63636861 C40.31912,9.52668453 40.31912,9.43881984 40.4288745,9.37296241 C40.5166688,9.27419977 40.6154432,9.29616007 40.7252024,9.43884332 C41.9214811,10.5692822 42.4866981,11.3704692 42.4208583,11.8423926 C42.3550009,12.1057987 42.2397586,12.2923674 42.0751421,12.4021219 C41.866605,12.5228449 41.7349042,12.5722379 41.6800375,12.5502894 C41.6361287,12.5283291 41.5099145,12.1003028 41.3013961,11.2661988 C40.3136287,11.9686114 39.3258696,12.9399027 38.3381163,14.1800844 C38.2393302,14.2898859 38.1679956,14.278847 38.1241009,14.1472026 C37.9814188,13.872828 37.8058174,13.6478347 37.5972955,13.4722345 C37.5204697,13.362433 37.5204697,13.2911384 37.5972955,13.2582214 C37.9155684,12.9728666 38.0747078,12.7094605 38.0747125,12.4680028 L38.0747125,11.2003767 L38.0747125,8.89561355 L38.0747125,2.96904463 C38.0747078,2.32153279 38.0362996,1.76179169 37.9594737,1.28985657 C37.9484349,1.15816521 37.9649932,1.08682359 38.0088668,1.07584344 C38.0747125,1.05388313 38.1405629,1.09228431 38.2064191,1.19104695 C38.2942133,1.31178164 38.4807914,1.48738185 38.7661496,1.71784759 L40.6264315,1.71784759 C40.7032456,1.75084677 40.7581252,1.7398079 40.7910586,1.68496586 L41.1038485,1.32279702 C41.1806626,1.21311294 41.2739539,1.19658987 41.3837144,1.27335698 L42.0422216,1.91539637 C42.1080673,2.00323758 42.1355001,2.06357556 42.1245316,2.09649253 C42.1025713,2.16237344 42.0422099,2.19525518 41.9434425,2.19525518 C41.8446564,2.21721548 41.7788072,2.26113608 41.7458902,2.32695827 C41.7239299,2.37087888 41.7129615,2.42572092 41.7129615,2.49157834 L41.7129615,7.69378609 C41.7129521,7.86939805 41.7348983,8.04499826 41.7788072,8.22058674 C41.7787978,8.33038825 41.7568469,8.4016829 41.7129615,8.43461161 C41.3178487,8.64314053 41.0818847,8.74739913 41.0050671,8.74739913 C40.9392096,8.74739913 40.9062809,8.68703765 40.9062927,8.56630296 L40.9062927,8.10534799 L38.8649217,8.10534799 L38.8649217,8.89556658 L38.8649217,11.2003297 L38.8649217,12.3856458 C39.830724,11.6942134 40.5989811,11.2003414 41.1696954,10.9040065 M40.9062927,2.22818389 L38.8649217,2.22818389 L38.8649217,4.63173312 L40.9062927,4.63173312 L40.9062927,2.22818389 M40.9062927,5.12560505 L38.8649217,5.12560505 L38.8649217,7.5950117 L40.9062927,7.5950117 L40.9062927,5.12560505 M45.2524373,11.9740839 L45.2524373,10.3936585 L45.2524373,9.58699903 L45.2524373,9.20835409 C44.8134204,10.7119419 44.160402,11.9576196 43.2933787,12.9453752 C42.4373109,13.8672851 41.0654227,14.8001752 39.1777115,15.7440337 C38.9362527,15.8427963 38.7935765,15.820836 38.7496829,15.6781528 C38.6838255,15.5354813 38.7716315,15.4202425 39.0130856,15.3324366 C40.3191153,14.7068615 41.4111389,13.9495834 42.2891564,13.0605904 C43.3647063,11.9740604 44.1165014,10.6350926 44.5445417,9.0436988 C44.6213558,8.72542708 44.7311068,8.19314223 44.8737959,7.44682076 L43.4580058,7.44682076 L43.2275284,7.85839441 C43.1836195,7.93519675 43.1287422,7.95715705 43.0629024,7.92427532 C42.9092402,7.71575814 42.6623007,7.55112633 42.3220816,7.43039164 C42.2342756,7.3755496 42.2287797,7.32059013 42.3056172,7.26577158 C42.4263331,7.14504863 42.519621,7.0627386 42.5854819,7.01882974 L42.7336459,6.82128096 C43.1397142,5.13111274 43.2604406,3.77020814 43.0958253,2.73853192 C43.1067467,2.68368988 43.1177621,2.64528871 43.128754,2.62332841 C43.1506908,2.59044667 43.1836195,2.5794078 43.2275284,2.59044667 L43.2275284,2.60688754 L43.2439927,2.60688754 C43.6720107,2.76055094 44.0451644,2.9142026 44.3634538,3.06784251 C44.4841685,3.10084168 44.5445311,3.15568372 44.5445429,3.23247432 C44.5445311,3.28731635 44.4841697,3.34227583 44.3634538,3.39710612 C44.1219903,3.51784081 43.9683386,3.85806109 43.9024988,4.41779045 L43.6226341,6.40976603 C43.5567767,6.60732655 43.523848,6.78292677 43.5238597,6.93657842 L44.9396498,6.93657842 C45.1262138,5.44397072 45.2195028,3.74282235 45.2195145,1.83314505 L44.198829,1.83314505 C43.7378635,1.8331568 43.3317846,1.87154622 42.9805924,1.94834857 C42.9037548,1.98134774 42.8488799,1.94836031 42.8159653,1.84958592 C42.7610763,1.65204889 42.6513288,1.48741708 42.4867122,1.35570224 C42.4098747,1.2788999 42.3879261,1.21852669 42.4208666,1.17461782 C42.4757321,1.14173609 42.5415825,1.14725552 42.6184177,1.19105869 C42.9696111,1.2788999 43.430566,1.32277353 44.0012826,1.32276179 L46.5694589,1.32276179 C46.6352929,1.32277353 46.7011456,1.28436062 46.7670112,1.20755828 L47.3761289,0.532578437 C47.452943,0.433815793 47.5297665,0.433815793 47.6066064,0.532578437 C48.01267,0.960628182 48.254123,1.22403438 48.3309641,1.32279702 C48.4516741,1.49840898 48.473625,1.63011208 48.3968097,1.71789457 C48.3528891,1.78377548 48.2486306,1.82217665 48.0840199,1.83309808 L46.5694542,1.83309808 L46.0920361,1.83309808 C46.0590956,3.6769297 45.9328838,5.37806633 45.7133947,6.93653145 L46.7999317,6.93653145 C46.8986944,6.93653145 47.0194197,6.88168941 47.1621099,6.77189964 L47.6889153,6.12986025 C47.7657294,6.07501821 47.8425517,6.06949878 47.9193928,6.11341938 C48.2376551,6.43170285 48.4681326,6.70607745 48.6108252,6.93655493 C48.7205563,7.11215515 48.7589727,7.23837404 48.726064,7.31518813 C48.6931235,7.40302934 48.6053211,7.44690297 48.4626613,7.44689123 L46.7340802,7.44689123 L45.6475443,7.44689123 L45.4829184,8.2041811 C45.7243572,8.30294374 45.9712967,8.43465858 46.223738,8.59927865 C46.3664001,8.70908016 46.3718878,8.81878772 46.2402024,8.92853052 C46.119463,9.01637173 46.0591003,9.23584557 46.0591132,9.58704601 L46.0591132,10.3937055 L46.0591132,11.9741309 L46.0591132,14.2789057 L46.0920419,14.5587645 C46.1139788,14.6026851 46.2072689,14.6246454 46.3719078,14.6246454 L46.9645635,14.6246454 C47.1401508,14.5917637 47.266365,14.5587645 47.3432049,14.5258828 C47.6834182,14.3063855 47.9084079,13.444837 48.0181742,11.9412491 C48.0181589,11.7985776 48.0894923,11.727236 48.2321897,11.727236 C48.3748506,11.7378051 48.440701,11.8204792 48.429742,11.9741779 C48.3529044,12.9180364 48.3474085,13.5655717 48.4132776,13.9167721 C48.4900917,14.1472496 48.6163012,14.3228498 48.791919,14.4435728 C48.8467728,14.4874934 48.857753,14.5478548 48.8248477,14.6246689 C48.5724041,15.041715 48.0675497,15.2667083 47.3102821,15.299637 L46.2895966,15.299637 C45.8176533,15.299637 45.5323009,15.2337561 45.4335382,15.1020765 C45.3127988,14.959405 45.2524362,14.7563603 45.2524491,14.4929658 L45.2524491,11.9741779 M64.0964413,1.55091407 L50.9979512,1.55091407 L51.0990978,1.95550034 L58.0445014,1.95550034 C57.8927816,2.98381793 57.6736295,4.36615438 57.5219096,5.25962161 L54.6898045,5.25962161 L53.4760445,4.70330961 L53.4760445,15.7114455 C54.4706524,15.7114455 54.5718002,15.2899956 54.5718002,15.2731437 L54.5718002,14.3122455 L62.9501136,14.3122455 L62.9501136,15.5091524 C63.7424272,15.5091524 64.0627258,15.1382816 64.0627258,15.1045661 L64.0627258,5.9676476 C64.3998811,5.90024004 64.6696064,5.76535446 64.7876107,5.63049237 L63.3209843,4.55159563 L62.7815348,5.25962161 L58.0107859,5.25962161 C58.482802,4.34930249 59.072826,3.03439709 59.5111278,1.95550034 L65.7653609,1.95550034 C66.254236,1.95550034 66.4396726,1.83749014 66.5745347,1.60148148 L64.9561884,0.472017324 L64.0964413,1.55091407 M62.9501136,9.38977907 L54.5718002,9.38977907 L54.5718002,5.66420789 L62.9501136,5.66420789 L62.9501136,9.38977907 M54.5718002,9.79436535 L62.9501136,9.79436535 L62.9501136,13.9076592 L54.5718002,13.9076592 L54.5718002,9.79436535 M82.6185778,9.84493277 L81.7251152,10.0135104 L81.7251152,0.65744683 C82.2477059,0.606832443 82.3994269,0.488869214 82.4331424,0.252860552 L80.6462185,0.0842829362 L80.6462185,10.2158035 L75.2011568,11.2272692 L75.3865934,11.59814 L80.6462185,10.6203898 L80.6462185,15.7114455 C81.5733942,15.7114455 81.7251152,15.3237112 81.7251152,15.2731437 L81.7251152,10.4180967 L84.0683465,9.97979486 C84.4055017,9.92918047 84.5740793,9.81121724 84.6415103,9.59207221 L83.2085994,8.58060652 L82.6185778,9.84493277 M75.1674413,5.64734426 C75.6226009,5.64734426 75.8080374,5.54623292 75.9260417,5.29333714 L74.5942774,4.29872333 L73.8862514,5.24275798 L72.9759311,5.24275798 L72.9759311,1.92178482 C73.7008149,1.68577616 74.3582687,1.4497675 74.8977171,1.23061072 C75.0831525,1.29801828 75.2517313,1.33172206 75.3865934,1.33172206 C75.5383132,1.33172206 75.6731753,1.28110768 75.7574641,1.19685997 L74.3245532,0.101111339 C73.1276521,0.910283895 70.7001298,2.09032721 68.7614884,2.73092215 L68.8626349,3.00064633 C69.8572417,2.81520508 70.9024264,2.5454809 71.8970344,2.25890482 L71.8970344,5.24272275 L68.8626349,5.24272275 L68.9637815,5.64730903 L71.5430202,5.64730903 C71.0204296,8.04111117 70.0595348,10.4686406 68.7109151,12.3229944 L68.9469237,12.5758549 C70.1943969,11.3283806 71.1721506,9.84489753 71.8970344,8.20970053 L71.8970344,15.7114103 L72.065612,15.7114103 C72.5882014,15.7114103 72.9759311,15.4248225 72.9759311,15.3405396 L72.9759311,8.02425928 C73.6502416,8.71543338 74.3751265,9.79433012 74.5774196,10.5697872 C74.7291395,10.7046492 74.8808593,10.7552167 75.0157214,10.7552167 C75.3023034,10.7552167 75.5383132,10.5023561 75.5383132,10.1146217 C75.5383132,9.47402678 74.9314315,8.49627661 72.9759311,7.72081958 L72.9759311,5.64730903 L75.1674413,5.64730903 M76.5160634,1.87117043 C77.392667,2.44433433 78.404135,3.52323107 78.7244325,4.36611915 C78.8761524,4.48412935 79.04473,4.53469676 79.1795921,4.53469676 C79.4830318,4.53469676 79.7190404,4.26497258 79.7190404,3.89410182 C79.7190404,3.21979136 78.9772966,2.19147378 76.61721,1.70259282 L76.5160634,1.87117043 M75.9428936,6.37219865 C76.8700764,6.86106786 77.9658321,7.83882978 78.3872761,8.6311387 C78.538996,8.71545687 78.6738592,8.76600079 78.8087213,8.76600079 C79.1290188,8.76600079 79.3650274,8.51314024 79.3650274,8.14226949 C79.3650274,7.48481091 78.5558514,6.47334522 76.0271883,6.16990551 L75.9428936,6.37219865 M86.4744464,7.58599271 C89.6099888,6.0856578 92.9646904,3.38840421 94.481889,0.994602062 C95.8979398,3.40526784 98.5277565,5.86650103 101.35986,7.40056321 C101.477859,6.94539777 101.916172,6.49023234 102.472473,6.37223388 L102.506176,6.11936158 C99.6066415,4.88875086 96.5890963,2.88267136 94.785317,0.809172556 C95.2236188,0.775468776 95.4427697,0.691162353 95.4933429,0.488869214 L93.3187023,0.0674310463 C92.4252409,2.49494871 89.1548293,5.66420789 86.3395843,7.34998405 L86.4744464,7.58599271 M94.8864753,14.7842628 L94.8864753,11.0418397 L99.5223585,11.0418397 C99.9943759,11.0418397 100.179817,10.9238295 100.314679,10.670969 L98.8143325,9.67635515 L98.038879,10.6372534 L94.8864753,10.6372534 L94.8864753,7.26570111 L98.9154791,7.26570111 C99.3874964,7.26570111 99.5897896,7.16458978 99.7077998,6.89483036 L98.2748842,5.93393208 L97.5331462,6.86111484 L89.003113,6.86111484 L89.1042595,7.26570111 L93.7570041,7.26570111 L93.7570041,10.6372534 L88.6996721,10.6372534 L88.8176764,11.0418397 L93.7570041,11.0418397 L93.7570041,14.7842628 L86.9633215,14.7842628 L87.064468,15.1888491 L101.123852,15.1888491 C101.612721,15.1888491 101.815026,15.0708389 101.949888,14.8179783 L100.365247,13.705366 L99.5392222,14.7842628 L94.8864753,14.7842628 M117.269043,3.80985412 L119.190827,3.80985412 C119.679708,3.80985412 119.848286,3.69184392 120,3.45583525 L118.634527,2.49494871 L117.926501,3.40526784 L117.269043,3.40526784 L117.269043,2.27579194 C117.589346,2.20838438 117.85907,2.0734988 117.977069,1.93863671 L116.527301,0.910319126 L116.021568,1.58462959 L112.66688,1.58462959 L112.66688,0.708025987 C113.240032,0.62370782 113.442337,0.522584737 113.459189,0.236008662 L111.587971,0.0842829362 L111.587971,1.58462959 L106.496927,1.58462959 L106.614937,1.98921587 L111.587971,1.98921587 L111.587971,3.40526784 L104.355997,3.40526784 L104.473996,3.80985412 L111.587971,3.80985412 L111.587971,5.2764735 L106.395781,5.2764735 L106.513791,5.68105978 L111.587971,5.68105978 L111.587971,7.08025987 L105.687755,7.08025987 L105.805765,7.48484614 L111.587971,7.48484614 L111.587971,8.91776175 L104.490859,8.91776175 L104.608858,9.32234803 L119.02225,9.32234803 C119.511131,9.32234803 119.69656,9.22123669 119.81457,8.96832916 L118.381655,7.99057899 L117.639913,8.91776175 L112.66688,8.91776175 L112.66688,7.48484614 L118.027648,7.48484614 C118.482801,7.48484614 118.685095,7.36684768 118.819957,7.13083902 L117.420768,6.16994074 L116.712742,7.08025987 L112.66688,7.08025987 L112.66688,5.68105978 L116.190146,5.68105978 L116.190146,6.27108731 L116.358723,6.27108731 C116.712742,6.27108731 117.252191,6.01821501 117.269043,5.90021655 L117.269043,3.80985412 M116.190146,1.98921587 L116.190146,3.40526784 L112.66688,3.40526784 L112.66688,1.98921587 L116.190146,1.98921587 M112.66688,3.80985412 L116.190146,3.80985412 L116.190146,5.2764735 L112.66688,5.2764735 L112.66688,3.80985412 M108.148988,10.6035379 L106.952093,10.0809414 L106.952093,15.7114455 C107.862412,15.7114455 108.030989,15.3574267 108.030989,15.3237112 L108.030989,14.7674109 L116.274441,14.7674109 L116.274441,15.5934353 C117.016182,15.5934353 117.370189,15.2731437 117.370189,15.2562801 L117.370189,11.3284158 C117.707344,11.2610082 117.977069,11.1092708 118.095079,10.9744087 L116.611596,9.92922745 L116.105863,10.6035379 L108.148988,10.6035379 M116.274441,12.441028 L108.030989,12.441028 L108.030989,11.0081242 L116.274441,11.0081242 L116.274441,12.441028 M108.030989,12.8456143 L116.274441,12.8456143 L116.274441,14.3628129 L108.030989,14.3628129 L108.030989,12.8456143" id="wikipedia-tagline-zh-yue" fill="#000000" fill-rule="nonzero"></path>
    </g>
</svg>

<svg xmlns="http://www.w3.org/2000/svg" width="120" height="16"><path fill="#000" fill-rule="nonzero" d="M9.423 2.933h-5.09A13.395 13.395 0 0 0 5.9.725c.388.017.557-.084.607-.253L4.568 0a20.525 20.525 0 0 1-.69 2.933H1.196L0 2.36v13.318c1.028 0 1.096-.422 1.096-.439v-.674h8.496v.978c.826 0 1.113-.371 1.113-.405V3.658c.354-.067.64-.202.741-.337L9.98 2.208l-.557.725m.17 7.418H1.095V7.013h8.496v3.338m0-3.743H1.096v-3.27h8.496v3.27m-8.496 4.147h8.496v3.406H1.096v-3.406m27.271-6.574h-4.72V.725c.573-.068.775-.202.792-.472L22.551.084v4.097h-4.686l-1.197-.557v12.054c.994 0 1.079-.405 1.079-.422v-.843h10.822v1.113c.742 0 1.096-.37 1.096-.405V4.99c.422-.084.759-.236.894-.422l-1.602-1.18-.59.793m-5.816 4.77h-4.804V4.585h4.804v4.366m6.018 0h-4.922V4.585h4.922v4.366m-6.018.405v4.653h-4.804V9.356h4.804m1.096 0h4.922v4.653h-4.922V9.356m9.966-5.745a9.86 9.86 0 0 0-.131-1.333c0-.022.01-.072.033-.149.032-.01.07.006.115.05.044.033.115.099.214.197.11.1.214.192.313.28h1.63c.11 0 .219-.044.329-.131l.395-.429c.066-.087.142-.093.23-.016.395.296.692.527.89.691.065.077.065.132 0 .165l-.511.395c-.066.044-.099.077-.099.099v4.428c-.022.835 0 1.811.066 2.93.01.067-.006.11-.05.132-.032.022-.263.116-.69.28-.067.033-.1-.027-.1-.18v-.742h-1.876l.016 1.696c-.022.12-.066.192-.132.214-.406.187-.642.28-.708.28-.043 0-.065-.11-.065-.33l.131-3.39V3.61m.774-.444v5.58l-.016 1.021h1.876V3.167h-1.86m6.783 7.737-.033-.066c-.23-.516-.467-.916-.708-1.202-.11-.11-.11-.197 0-.263.088-.099.186-.077.296.066 1.196 1.13 1.762 1.931 1.696 2.403-.066.264-.181.45-.346.56-.208.12-.34.17-.395.148-.044-.022-.17-.45-.379-1.284-.987.703-1.975 1.674-2.963 2.914-.099.11-.17.099-.214-.033a2.188 2.188 0 0 0-.527-.675c-.077-.11-.077-.18 0-.214.319-.285.478-.549.478-.79V2.969c0-.647-.039-1.207-.116-1.68-.01-.13.006-.202.05-.213.066-.022.132.016.197.115.088.12.275.296.56.527h1.86c.077.033.132.022.165-.033l.313-.362c.077-.11.17-.126.28-.05l.658.642c.066.088.094.149.083.181-.022.066-.083.1-.182.1-.098.021-.164.065-.197.131a.366.366 0 0 0-.033.165v5.202c0 .175.022.351.066.527 0 .11-.022.18-.066.214-.395.208-.631.312-.708.312-.066 0-.099-.06-.099-.18v-.462h-2.041V12.386c.966-.692 1.734-1.186 2.305-1.482m-.264-8.676h-2.041v2.404h2.041V2.228m0 2.898h-2.041v2.469h2.041v-2.47m4.346 6.85V9.207c-.439 1.504-1.092 2.75-1.959 3.737-.856.922-2.228 1.855-4.115 2.799-.242.099-.384.077-.428-.066-.066-.143.022-.258.263-.346 1.306-.625 2.398-1.382 3.276-2.271 1.076-1.087 1.828-2.426 2.256-4.017.076-.319.186-.85.329-1.597h-1.416l-.23.411c-.044.077-.1.1-.165.066-.154-.208-.4-.373-.74-.494-.089-.054-.094-.11-.017-.164.12-.121.214-.203.28-.247l.148-.198c.406-1.69.526-3.05.362-4.082a.507.507 0 0 1 .033-.116c.022-.033.055-.044.099-.033v.017h.016c.428.154.801.307 1.12.46.12.034.18.089.18.165 0 .055-.06.11-.18.165-.242.12-.396.461-.462 1.02l-.28 1.993a1.691 1.691 0 0 0-.098.527h1.416c.186-1.493.28-3.194.28-5.104h-1.021c-.461 0-.867.039-1.218.115-.077.033-.132 0-.165-.098a.943.943 0 0 0-.33-.494c-.076-.077-.098-.137-.065-.181.055-.033.12-.028.197.016.352.088.813.132 1.383.132h2.568c.066 0 .132-.039.198-.115l.61-.675c.076-.1.153-.1.23 0 .406.428.647.691.724.79.12.175.143.307.066.395-.044.066-.148.104-.313.115h-1.992a42.113 42.113 0 0 1-.379 5.104H46.8c.099 0 .22-.055.362-.165l.527-.642c.077-.055.154-.06.23-.017.319.319.55.593.692.824.11.175.148.301.115.378-.033.088-.12.132-.263.132H45.648l-.165.757c.241.099.488.23.74.395.143.11.149.22.017.33-.12.087-.18.307-.18.658v4.692l.032.28c.022.044.115.066.28.066h.593c.175-.033.301-.066.378-.1.34-.219.565-1.08.675-2.584 0-.142.071-.214.214-.214.143.01.209.093.198.247-.077.944-.083 1.592-.017 1.943.077.23.203.406.379.527.055.043.066.104.033.18-.253.418-.757.643-1.515.676h-1.02c-.472 0-.758-.066-.856-.198-.121-.143-.182-.346-.182-.609v-2.519M64.096 1.551H50.998l.101.405h6.946c-.152 1.028-.371 2.41-.523 3.304H54.69l-1.214-.557v11.008c.995 0 1.096-.421 1.096-.438v-.96h8.378v1.196c.792 0 1.113-.37 1.113-.404V5.968c.337-.068.607-.203.725-.338L63.32 4.552l-.54.708h-4.77a43.703 43.703 0 0 0 1.5-3.304h6.254c.49 0 .675-.119.81-.355L64.956.472l-.86 1.079M62.95 9.39h-8.378V5.664h8.378V9.39m-8.378.404h8.378v4.114h-8.378V9.794m28.047.05-.894.17V.657c.523-.05.674-.168.708-.404L80.646.084v10.132l-5.445 1.011.186.371 5.26-.978v5.091c.926 0 1.078-.387 1.078-.438v-4.855l2.343-.438c.338-.05.506-.169.574-.388l-1.433-1.011-.59 1.264m-7.452-4.198c.456 0 .641-.1.759-.354L74.594 4.3l-.708.944h-.91V1.922a29.524 29.524 0 0 0 1.922-.691c.185.067.354.1.489.1.151 0 .286-.05.37-.134L74.325.1c-1.197.81-3.625 1.99-5.564 2.63l.102.27c.994-.186 2.04-.456 3.034-.742v2.984h-3.034l.1.404h2.58c-.523 2.394-1.483 4.822-2.832 6.676l.236.253c1.247-1.248 2.225-2.731 2.95-4.366v7.501h.169c.522 0 .91-.286.91-.37V8.024c.674.691 1.4 1.77 1.601 2.546a.657.657 0 0 0 .439.185c.286 0 .522-.253.522-.64 0-.641-.607-1.619-2.562-2.394V5.647h2.191m1.35-3.776c.876.573 1.887 1.652 2.207 2.495.152.118.32.169.456.169.303 0 .539-.27.539-.64 0-.675-.742-1.704-3.102-2.192l-.1.168m-.574 4.501c.927.49 2.023 1.467 2.444 2.26.152.083.287.134.422.134.32 0 .556-.253.556-.624 0-.657-.81-1.669-3.338-1.972l-.084.202m10.531 1.214c3.136-1.5 6.49-4.198 8.008-6.591 1.416 2.41 4.046 4.872 6.878 6.406.118-.456.556-.91 1.112-1.029l.034-.253c-2.9-1.23-5.917-3.236-7.72-5.31.438-.034.657-.118.707-.32L93.32.067c-.894 2.428-4.164 5.597-6.98 7.283l.135.236m8.412 7.198v-3.742h4.636c.472 0 .658-.118.793-.371l-1.5-.995-.776.961h-3.153V7.266h4.03c.471 0 .674-.101.792-.371l-1.433-.961-.742.927h-8.53l.101.405h4.653v3.371H88.7l.118.405h4.939v3.742h-6.794l.101.405h14.06c.489 0 .691-.118.826-.371l-1.585-1.113-.826 1.08h-4.653M117.27 3.81h1.922c.489 0 .657-.118.809-.354l-1.365-.961-.708.91h-.658v-1.13c.32-.067.59-.202.708-.336L116.527.91l-.505.675h-3.355V.708c.573-.084.775-.185.792-.472l-1.871-.152v1.5h-5.091l.118.405h4.973v1.416h-7.232l.118.405h7.114v1.466h-5.192l.118.405h5.074v1.4h-5.9l.118.404h5.782v1.433h-7.097l.118.404h14.413c.49 0 .675-.1.793-.354l-1.433-.977-.742.927h-4.973V7.485h5.36c.456 0 .658-.118.793-.354l-1.4-.961-.707.91h-4.046V5.681h3.523v.59h.169c.354 0 .893-.253.91-.37V3.81m-1.079-1.82v1.415h-3.523V1.99h3.523m-3.523 1.82h3.523v1.467h-3.523V3.81m-4.518 6.794-1.197-.523v5.63c.91 0 1.079-.354 1.079-.387v-.557h8.243v.826c.742 0 1.096-.32 1.096-.337v-3.928c.337-.067.607-.219.725-.354l-1.483-1.045-.506.675h-7.957m8.125 1.837h-8.243v-1.433h8.243v1.433m-8.243.405h8.243v1.517h-8.243v-1.517"/></svg>
